X: 40714
T: Toss The Feathers
R: reel
M: 4/4
K: Dmixolydian
D2AD EDAD|D2AG EAGE|D2AD EDEG|1 AddB cAGE:|2 AcGE EDD2||
Add^c d2cd|ed^cd ed~d2|eaag ed^cd|ed^cd ed~d2|
eaag efge|dged cAGE|D2AD EGAB|cded cAGE||

